!!!COM: Mendelssohn, Felix
!!!CDT: 1809/02/03-1847/11/04
!!!OPR: Sechs vierstimmige Lieder
!!!OTL: Entflieh mit mir
!!!OPS: Op. 41
!!!ONM: Nr. 2
!!!OMD: Andante
**kern	**text	**text	**dynam	**kern	**text	**text	**dynam	**kern	**text	**text	**dynam	**kern	**text	**text	**dynam
*part4	*part4	*part4	*part4	*part3	*part3	*part3	*part3	*part2	*part2	*part2	*part2	*part1	*part1	*part1	*part1
*staff4	*staff4	*staff4	*	*staff3	*staff3	*staff3	*	*staff2	*staff2	*staff2	*	*staff1	*staff1	*staff1	*
*I"Bass	*	*	*	*I"Tenor	*	*	*	*I"Alt	*	*	*	*I"Sopran	*	*	*
*clefF4	*	*	*	*clefGv2	*	*	*	*clefG2	*	*	*	*clefG2	*	*	*
*k[f#c#g#d#]	*	*	*	*k[f#c#g#d#]	*	*	*	*k[f#c#g#d#]	*	*	*	*k[f#c#g#d#]	*	*	*
*E:	*	*	*	*E:	*	*	*	*E:	*	*	*	*E:	*	*	*
*M6/8	*	*	*	*M6/8	*	*	*	*M6/8	*	*	*	*M6/8	*	*	*
*MM72	*	*	*	*MM72	*	*	*	*MM72	*	*	*	*MM72	*	*	*
=	=	=	=	=	=	=	=	=	=	=	=	=	=	=	=
8E	Ent-	Und	.	8G#	Ent-	Und	p	8e	Ent-	Und	.	8b	Ent-	Und	.
=1	=1	=1	=1	=1	=1	=1	=1	=1	=1	=1	=1	=1	=1	=1	=1
4E	-flieh'	fliehst	.	4G#	-flieh'	fliehst	.	4e	-flieh'	fliehst	.	4b	-flieh'	fliehst	.
8E	mit	du	.	8B	mit	du	.	8B	mit	du	.	8g#	mit	du	.
4E	mir	nicht,	.	4G#	mir	nicht,	.	4B	mir	nicht,	.	4e	mir	nicht,	.
8BB	und	so	.	8B	und	so	.	8d#	und	so	.	8f#	und	so	.
=2	=2	=2	=2	=2	=2	=2	=2	=2	=2	=2	=2	=2	=2	=2	=2
(8EL	sei	sterb'	<	4B	sei	sterb'	<	4e	sei	sterb'	<	4g#	sei	sterb'	<
8D#J)	.	.	.	.	.	.	.	.	.	.	.	.	.	.	.
8C#	mein	ich	.	8A	mein	ich	.	8e	mein	ich	.	8a	mein	ich	.
4BB	Weib,	hier	[	4G#	Weib,	hier	[	4e	Weib,	hier	[	4b	Weib,	hier	[
8BB	und	und	p	8B	und	und	p	8e	und	und	p	8g#	und	und	p
=3	=3	=3	=3	=3	=3	=3	=3	=3	=3	=3	=3	=3	=3	=3	=3
4BB	ruh'	du	.	4A	ruh'	du	.	4d#	ruh'	du	.	8g#L	ruh'	du	.
.	.	.	.	.	.	.	.	.	.	.	.	8f#J	.	.	.
8BB	an	bist	.	8A	an	bist	.	8d#	an	bist	.	8g#	an	bist	.
4BB	mei-	ein-	.	4G#	mei-	ein-	.	4e	mei-	ein-	.	4e	mei-	ein-	.
8BB	-nem	-sam	.	8B	-nem	-sam	.	8g#	-nem	-sam	.	8b	-nem	-sam	.
=4	=4	=4	=4	=4	=4	=4	=4	=4	=4	=4	=4	=4	=4	=4	=4
4BB	Her-	und	.	4d#	Her-	und	.	8g#L	Her-	und	.	8bL	Her-	und	.
.	.	.	.	.	.	.	.	8f#J	.	.	.	8aJ	.	.	.
8BB	-zen	al-	.	8B	-zen	al-	.	8g#	-zen	al-	.	8b	-zen	al-	.
4.E	aus;	-lein;	.	4.B	aus;	-lein;	.	4.e	aus;	-lein;	.	4.g#	aus;	-lein;	.
=5	=5	=5	=5	=5	=5	=5	=5	=5	=5	=5	=5	=5	=5	=5	=5
8E	in	und	f	8G#	in	und	f	8e	in	und	f	8e	in	und	f
8E	wei-	bleibst	.	8G#	wei-	bleibst	.	8e	wei-	bleibst	.	8g#	wei-	bleibst	.
8E	-ter	du	.	8G#	-ter	du	.	8e	-ter	du	.	8b	-ter	du	.
4E	Fer-	auch	.	4B	Fer-	auch	.	4g#	Fer-	auch	.	4ee	Fer-	auch	.
*c#:	*	*	*	*c#:	*	*	*	*c#:	*	*	*	*c#:	*	*	*
8F#	-ne	im	.	8A	-ne	im	.	8f#	-ne	im	.	8dd#	-ne	im	.
=6	=6	=6	=6	=6	=6	=6	=6	=6	=6	=6	=6	=6	=6	=6	=6
4G#	sei	Va-	.	8G#L	sei	Va-	.	8eL	sei	Va-	.	4cc#	sei	Va-	.
.	.	.	.	8eJ	.	.	.	8g#J	.	.	.	.	.	.	.
8G#	mein	-ter-	.	8d#	mein	-ter-	.	8f#	mein	-ter-	.	8b#X	mein	-ter-	.
4.A	Herz	-haus,	.	4.c#	Herz	-haus,	.	4.e	Herz	-haus,	.	4.cc#	Herz	-haus,	.
=7	=7	=7	=7	=7	=7	=7	=7	=7	=7	=7	=7	=7	=7	=7	=7
*E:	*	*	*	*E:	*	*	*	*E:	*	*	*	*E:	*	*	*
8AA	dir	wirst	p	8c#	dir	wirst	p	8e	dir	wirst	p	8ee	dir	wirst	p
8AA	Va-	doch	.	8c#	Va-	doch	.	8e	Va-	doch	.	8cc#	Va-	doch	.
8AA	-ter-	wie	.	8c#	-ter-	wie	.	8e	-ter-	wie	.	8a	-ter-	wie	.
4AA	-land	in	.	4c#	-land	in	.	4e	-land	in	.	4f#	-land	in	.
8AA	und	der	.	8F#	und	der	.	8e	und	der	.	8cc#	und	der	.
=8	=8	=8	=8	=8	=8	=8	=8	=8	=8	=8	=8	=8	=8	=8	=8
4BB	Va-	Frem-	.	4F#	Va-	Frem-	.	4d#	Va-	Frem-	.	4b	Va-	Frem-	.
8D#	-ter-	-de	.	8B	-ter-	-de	.	8f#	-ter-	-de	.	8a	-ter-	-de	.
4E	-haus,	sein,	.	4B	-haus,	sein,	.	4e	-haus,	sein,	.	4g#	-haus,	sein,	.
8r	.	.	.	8r	.	.	.	8r	.	.	.	8r	.	.	.
=9	=9	=9	=9	=9	=9	=9	=9	=9	=9	=9	=9	=9	=9	=9	=9
8E	in	und	f	8G#	in	und	f	8B	in	und	f	8e	in	und	f
8E	wei-	bleibst	.	8B	wei-	bleibst	.	8e	wei-	bleibst	.	8g#	wei-	bleibst	.
8E	-ter	du	.	8e	-ter	du	.	8g#	-ter	du	.	8b	-ter	du	.
4E	Fer-	auch	.	4B	Fer-	auch	.	4g#	Fer-	auch	.	4ee	Fer-	auch	.
*c#:	*	*	*	*c#:	*	*	*	*c#:	*	*	*	*c#:	*	*	*
8F#	-ne	im	.	8A	-ne	im	.	8f#	-ne	im	.	8dd#	-ne	im	.
=10	=10	=10	=10	=10	=10	=10	=10	=10	=10	=10	=10	=10	=10	=10	=10
4G#	sei	Va-	.	8G#L	sei	Va-	.	8eL	sei	Va-	.	4cc#	sei	Va-	.
.	.	.	.	8eJ	.	.	.	8g#J	.	.	.	.	.	.	.
8G#	mein	-ter-	.	8d#	mein	-ter-	.	8f#	mein	-ter-	.	8b#X	mein	-ter-	.
4.A	Herz	-haus,	.	4.c#	Herz	-haus,	.	4.e	Herz	-haus,	.	4cc#	Herz	-haus,	.
.	.	.	.	.	.	.	.	.	.	.	.	8cc#	dir	wirst	.
=11	=11	=11	=11	=11	=11	=11	=11	=11	=11	=11	=11	=11	=11	=11	=11
4r	.	.	.	4r	.	.	.	4r	.	.	.	[4.ee	Va-	doch	.
*E:	*	*	*	*E:	*	*	*	*E:	*	*	*	*E:	*	*	*
8AA	dir	wirst	p	8A	dir	wirst	p	8c#	dir	wirst	p	.	.	.	.
4A	Va-	doch	.	4c#	Va-	doch	.	4e	Va-	doch	.	8eeL]	.	.	.
.	.	.	.	.	.	.	.	.	.	.	.	8cc#J	.	.	.
8A	-ter-	wie	.	8c#	-ter-	wie	.	8e	-ter-	wie	.	8a	-ter-	wie	]
=12	=12	=12	=12	=12	=12	=12	=12	=12	=12	=12	=12	=12	=12	=12	=12
4.A	-land	in	.	4.c#	-land	in	.	4.e	-land	in	.	4f#	-land	in	.
.	.	.	.	.	.	.	.	.	.	.	.	8g#	und	der	.
4r	.	.	.	4r	.	.	.	4r	.	.	.	4a	Va-	Frem-	.
8BB	und	der	.	8A	und	der	.	8B	und	der	.	8d#	-ter-	-de	.
=13	=13	=13	=13	=13	=13	=13	=13	=13	=13	=13	=13	=13	=13	=13	=13
4.E	Va-	Frem-	.	(4G#	Va-	Frem-	.	(4B	Va-	Frem-	.	[2.e	-haus.	sein.	.
.	.	.	.	8c#	.	.	.	8e	.	.	.	.	.	.	.
4.E	-ter-	-de	.	4B)	.	.	.	4d#)	.	.	.	.	.	.	.
.	.	.	.	8A	-ter-	-de	.	8c#	-ter-	-de	.	.	.	.	.
=14	=14	=14	=14	=14	=14	=14	=14	=14	=14	=14	=14	=14	=14	=14	=14
[4.EE [4.E	-haus.	sein.	.	[4.G#	-haus.	sein.	.	[4.B	-haus.	sein.	.	4.e_	.	.	.
4EE] 4E]	.	.	.	4G#]	.	.	.	4B]	.	.	.	4e]	.	.	.
==	==	==	==	==	==	==	==	==	==	==	==	==	==	==	==
*-	*-	*-	*-	*-	*-	*-	*-	*-	*-	*-	*-	*-	*-	*-	*-
!!!system-decoration: ([s1,s2,s3,s4])
!!!RDF**kern: i = editorial accidental
!!!AGN: Choral
!!!YOR: https://mdz-nbn-resolving.de/details:bsb11150717
!!!YOO: München, Bayerische Staatsbibliothek
!!!URL-scan: https://www.digitale-sammlungen.de/de/view/bsb11150717?page=8
!!!EED: Wolfgang Drescher
!!!END: 2024/10/29
!!!ENC: Wolfgang Drescher
!!!EEV: 2024/11/13
!!!title: @{OPS} @{ONM}. @{OTL}